X:15
T:U4-Schottisch
M:2/4
L:1/16
C:Hermann Fritz
S:Simon Wascher
N:vielleicht nicht ganz die Originalversion
K:D
DDD2 AAA2 |d2d2 B4  |AAAA A2G2 |FFFF F2E2
|DDD2 AAA2 |d2d2 B4  |AAAA AFGE|D2F2 D4  :|
|:EEEE FEE2 |GGGG AGG2 |FEDC DEGF|E2EE FEE2
|EEEE FEE2 |GGGG AGG2 |FEDC DEGF|E2EE FEE2 :|
